X: 1
T: Prince William
C: R-92
C: New England
M: C|
Z: Transcribed to abc by Mary Lou Knack
R: reel
K: A
 E2| "A"A4 c2BA| "E"B4 E2d2| "A"c4 "E"B4| "A"AGAB A2B2|
     "A"c2A2 E2c2| "E"B6 A2| G2e2 "B"F2^d2| "E"e6 :|
|:\
cd| "A"e4 f3e| "E"d2c2 B2e2| "A"d2c2 B2A2| "E"GABG E2FG|
    "A"A2GA "E"B2AB| "A"c2Bc "E"d2ed| "A"c2BA "E"E2G2| "A"A4 A2 :|
%%text 9/1/98
